X: 53
T: Omsi Gomsi
S:tradtunes 2015-4-17 (< David Jacobs)
M:4/4
K:G
D2 GG D2 GG | F2 E2 F2 E2 | D2 GG D2 GG | F2 G2 A4 |\
D2 GG D2 GG | F2 E2 F2 E2 | D2 D2 E2 F2 | G2 G2 G4 ||
B3 A GA B2 | c4A4 | B3 A GA B2 | A2 F2 D4 |\
B3 A GA B2 | c4 A4 | G2 G2 FE F2 | G2 G2 G4 :|


